X:235
L:1/4
M:4/4
K:C
[M:3/4][K:F] a/ve/ a/d/d/e/d/ e/ e/a/ue/ a/ d8[Q:1/8=120]"^G dorian" .d G G | A/G/A/c/ d | c F A | 
 c F A |"^5" d G G | A/G/A/c/ d | f d e/f/ | c2 A :|"^9" G g g | g a/g/f/e/ | f g/f/e/d/ | c A F | 
"^13" G g g | g a/g/f/e/ | f d e | f2 e |"^17" d B/c/ d | c A/B/ c | f d/e/ f | c A F | 
"^21" d/c/A/c/ d | c A B | c d A | G3 |]

